X:1
T:Mary Nail
M:6/8
L:1/8
K:F
E-D| C2 C F2 A,| B,2 C D2 C| D F2 F2 E| F3 z FG| A2 AA-G F| G2 G A2 F|\
 F2 F F2 A,| C3 z FE| A2 AA-G F| G3 A2A/2-G/2| F2 F F2 A,| C3 z2F/2-E/2|\
 D2 C F2 A,| B,2 C D2C/2-B,/2| A,2 C F2 E| F3 z||
